src/components/stable/gux-icon/icons/cc-policy-contract.svg

<svg viewBox="0 0 24 32" fill="none" xmlns="http://www.w3.org/2000/svg">
  <path fill-rule="evenodd" clip-rule="evenodd" d="M24 28.9953V8.23868C23.9994 7.84555 23.9212 7.45639 23.77 7.09349C23.6188 6.73059 23.3975 6.40106 23.1188 6.12376L17.8752 0.881054C17.3132 0.318628 16.5512 0.00181304 15.756 0H3.00521C2.20818 0 1.44379 0.316565 0.880206 0.880055C0.31662 1.44354 0 2.2078 0 3.00469V28.9953C0 29.7922 0.31662 30.5565 0.880206 31.1199C1.44379 31.6834 2.20818 32 3.00521 32H21.0006C21.7966 31.9985 22.5595 31.6812 23.1219 31.1179C23.6842 30.5546 24 29.7912 24 28.9953ZM16.0003 7.9983V3.24313L20.7563 7.9983H16.0003ZM21.0006 10.9982V28.9953L3.00521 29.0002V3.00469H13V9.49871C13 9.89639 13.158 10.2778 13.4392 10.559C13.7205 10.8402 14.1019 10.9982 14.4997 10.9982H21.0006ZM6.8 14C6.35817 14 6 14.3582 6 14.8V15.7C6 16.1418 6.35817 16.5 6.8 16.5H17.2C17.6418 16.5 18 16.1418 18 15.7V14.8C18 14.3582 17.6418 14 17.2 14H6.8ZM6 19.3C6 18.8582 6.35817 18.5 6.8 18.5H17.2C17.6418 18.5 18 18.8582 18 19.3V20.2C18 20.6418 17.6418 21 17.2 21H6.8C6.35817 21 6 20.6418 6 20.2V19.3ZM6.8 23C6.35817 23 6 23.3582 6 23.8V24.7C6 25.1418 6.35817 25.5 6.8 25.5H17.2C17.6418 25.5 18 25.1418 18 24.7V23.8C18 23.3582 17.6418 23 17.2 23H6.8Z"/>
</svg>

<svg viewBox="0 0 24 32" fill="none" xmlns="http://www.w3.org/2000/svg"><path clip-rule="evenodd" d="M24 28.995V8.24a2.99 2.99 0 00-.881-2.115L17.875.88A3.005 3.005 0 0015.756 0H3.006A3.005 3.005 0 000 3.005v25.99A3.004 3.004 0 003.005 32h17.996A3.006 3.006 0 0024 28.995zM16 7.998V3.243l4.756 4.755H16zm5 3v17.997L3.006 29V3.005H13v6.494a1.5 1.5 0 001.5 1.5H21zM6.8 14a.8.8 0 00-.8.8v.9a.8.8 0 00.8.8h10.4a.8.8 0 00.8-.8v-.9a.8.8 0 00-.8-.8H6.8zM6 19.3a.8.8 0 01.8-.8h10.4a.8.8 0 01.8.8v.9a.8.8 0 01-.8.8H6.8a.8.8 0 01-.8-.8v-.9zm.8 3.7a.8.8 0 00-.8.8v.9a.8.8 0 00.8.8h10.4a.8.8 0 00.8-.8v-.9a.8.8 0 00-.8-.8H6.8z"/></svg>
